icon-themes/breeze_svg/cmd/sc_macrorecorder.svg

<svg viewBox="0 0 16 16" xmlns="http://www.w3.org/2000/svg"><path d="m7 2v1.09375c-.6727526.1161735-1.1822192.4351927-1.75.75h-.03125l-.8125-.84375-1.40625 1.40625.84375.8125v.03125c-.4341135.6457488-.6124342 1.0614058-.75 1.75h-1.09375v2h1.09375c.113792.6669243.3953673 1.270073.75 1.75.0052.0078-.00525.02349 0 .03125l-.84375.8125 1.40625 1.40625.8125-.84375c.4892272.3378 1.1106464.642688 1.78125.75v1.09375h2v-1.09375c.6483558-.134845 1.226215-.410899 1.75-.71875l.84375.8125 1.40625-1.40625-.8125-.84375c.353315-.559491.641012-1.18892.71875-1.75h1.09375v-2h-1.09375c-.125101-.6671791-.428712-1.1776292-.71875-1.75l.8125-.84375-1.40625-1.40625-.84375.8125c-.551769-.346593-1.1410768-.6016939-1.75-.71875v-1.09375zm1 2c2.209139 0 4 1.790861 4 4s-1.790861 4-4 4-4-1.790861-4-4 1.790861-4 4-4z" fill="#4d4d4d"/><path d="m8 6a2 2 0 0 0 -2 2 2 2 0 0 0 2 2 2 2 0 0 0 2-2 2 2 0 0 0 -2-2z" fill="#da4453"/></svg>

<svg xmlns="http://www.w3.org/2000/svg" viewBox="0 0 16 16">
 <path 
     style="fill:#4d4d4d" 
     d="m 7,2 0,1.09375 c -0.6727526,0.1161735 -1.1822192,0.4351927 -1.75,0.75 l -0.03125,0 L 4.40625,3 3,4.40625 l 0.84375,0.8125 0,0.03125 C 3.4096365,5.8957488 3.2313158,6.3114058 3.09375,7 L 2,7 2,9 3.09375,9 c 0.113792,0.6669243 0.3953673,1.270073 0.75,1.75 0.0052,0.0078 -0.00525,0.02349 0,0.03125 L 3,11.59375 4.40625,13 5.21875,12.15625 c 0.4892272,0.3378 1.1106464,0.642688 1.78125,0.75 L 7,14 9,14 9,12.90625 c 0.6483558,-0.134845 1.226215,-0.410899 1.75,-0.71875 L 11.59375,13 13,11.59375 12.1875,10.75 C 12.540815,10.190509 12.828512,9.56108 12.90625,9 L 14,9 14,7 12.90625,7 C 12.781149,6.3328209 12.477538,5.8223708 12.1875,5.25 L 13,4.40625 11.59375,3 10.75,3.8125 C 10.198231,3.465907 9.6089232,3.2108061 9,3.09375 L 9,2 Z m 1,2 c 2.209139,0 4,1.790861 4,4 0,2.209139 -1.790861,4 -4,4 C 5.790861,12 4,10.209139 4,8 4,5.790861 5.790861,4 8,4 Z"
     />
 <path 
     style="fill:#da4453" 
     d="M 8 6 A 2 2 0 0 0 6 8 A 2 2 0 0 0 8 10 A 2 2 0 0 0 10 8 A 2 2 0 0 0 8 6 z "
     />
 </svg>
